X:18
%%NRChange 2025-10-09
T:Finn Jenta
R:Waltz Bakmes
O:Norway
O:USA
M:3/4
Z:Richard Robinson <URL:http://www.leeds.ac.uk/music/Info/RRTuneBk/contact.html>
F: http://www.leeds.ac.uk/music/Info/RRTuneBk/gettune/00000957.abc
K:Gmin
P:[A]
"(D)"D^F |\
"Gm"G2 G^F GA | B2 BA Bc | \
"Bb"d2 dc d=e | "Dm"f2 f=e gf |
"Dm"d2 dc Ac | "Gm"B2 BA G2 |"D7"^FG A2 F2 |1,3 "D7"D4 :|2,4 "Gm"G4 :|
P:[B]
|:\
Bc |\
"Gm"d2 c2B2 | "Dm"A4 AB | \
"C"c2 (3BcB A2 | "Eb"G3 ^F GA |
"Eb"B2 A2 ^F2 | "D7"D2A2 ^F2 \
|1,3 "Gm"G2 "Eb7"d2 ^c2 | "D7"d4 :|2,4 "Gm"G3 G G2 | G4:|

